images/add-event.svg

<svg enable-background="new 0 0 512 512" height="512" viewBox="0 0 512 512" width="512" xmlns="http://www.w3.org/2000/svg"><path d="m469.333 304.232v-218.899c0-23.531-19.146-42.667-42.667-42.667h-53.333c-5.896 0-10.667 4.771-10.667 10.667v53.333c0 11.76-9.563 21.333-21.333 21.333-11.77.001-21.333-9.572-21.333-21.332 0-8.917 5.729-16.948 14.25-19.979 4.25-1.521 7.083-5.542 7.083-10.052v-65.969c0-5.896-4.77-10.667-10.666-10.667s-10.667 4.771-10.667 10.667v32h-160c-5.896 0-10.667 4.771-10.667 10.667v53.333c0 11.76-9.563 21.333-21.333 21.333s-21.333-9.573-21.333-21.333c0-8.917 5.729-16.948 14.25-19.979 4.25-1.521 7.083-5.542 7.083-10.052v-65.969c0-5.896-4.771-10.667-10.667-10.667s-10.667 4.771-10.667 10.667v32h-64c-23.52 0-42.666 19.135-42.666 42.666v341.333c0 23.531 19.146 42.667 42.667 42.667h261.563c21.542 26.043 54.086 42.667 90.437 42.667 64.687 0 117.333-52.635 117.333-117.333 0-36.354-16.626-68.897-42.667-90.435zm-192 90.435c0 11.104 1.654 21.811 4.549 32h-239.215v-256h384v111.216c-10.189-2.897-20.896-4.549-32-4.549-64.688-.001-117.334 52.635-117.334 117.333zm160 10.666h-32v32c0 5.896-4.771 10.667-10.667 10.667s-10.666-4.771-10.666-10.667v-32h-5.771-26.229c-5.896 0-10.667-4.771-10.667-10.667s4.771-10.666 10.667-10.666h32v-32c0-5.896 4.771-10.667 10.667-10.667s10.667 4.771 10.667 10.667v26.229 5.771h32c5.896 0 10.667 4.771 10.667 10.667s-4.772 10.666-10.668 10.666z" fill="#9ba3af"/></svg>

<?xml version="1.0"?>
<svg xmlns="http://www.w3.org/2000/svg" xmlns:xlink="http://www.w3.org/1999/xlink" version="1.1" id="Capa_1" x="0px" y="0px" viewBox="0 0 512 512" style="enable-background:new 0 0 512 512;" xml:space="preserve" width="512px" height="512px" class=""><g><g>
	<g>
		<path d="M469.333,304.232V85.333c0-23.531-19.146-42.667-42.667-42.667h-53.333c-5.896,0-10.667,4.771-10.667,10.667v53.333    c0,11.76-9.563,21.333-21.333,21.333C329.563,128,320,118.427,320,106.667c0-8.917,5.729-16.948,14.25-19.979    c4.25-1.521,7.083-5.542,7.083-10.052V10.667C341.333,4.771,336.563,0,330.667,0C324.771,0,320,4.771,320,10.667v32H160    c-5.896,0-10.667,4.771-10.667,10.667v53.333c0,11.76-9.563,21.333-21.333,21.333s-21.333-9.573-21.333-21.333    c0-8.917,5.729-16.948,14.25-19.979c4.25-1.521,7.083-5.542,7.083-10.052V10.667C128,4.771,123.229,0,117.333,0    c-5.896,0-10.667,4.771-10.667,10.667v32h-64C19.146,42.667,0,61.802,0,85.333v341.333c0,23.531,19.146,42.667,42.667,42.667    H304.23C325.772,495.376,358.316,512,394.667,512C459.354,512,512,459.365,512,394.667    C512,358.313,495.374,325.77,469.333,304.232z M277.333,394.667c0,11.104,1.654,21.811,4.549,32H42.667v-256h384v111.216    c-10.189-2.897-20.896-4.549-32-4.549C329.979,277.333,277.333,329.969,277.333,394.667z M437.333,405.333h-32v32    c0,5.896-4.771,10.667-10.667,10.667S384,443.229,384,437.333v-32h-5.771H352c-5.896,0-10.667-4.771-10.667-10.667    S346.104,384,352,384h32v-32c0-5.896,4.771-10.667,10.667-10.667s10.667,4.771,10.667,10.667v26.229V384h32    c5.896,0,10.667,4.771,10.667,10.667S443.229,405.333,437.333,405.333z" data-original="#000000" class="active-path" data-old_color="#9ba3af" fill="#9ba3af"/>
	</g>
</g></g> </svg>
